X:144
T:The Tongs By The Fire
Z:Philippe Murphy 2007-03-14
R:jig
M:6/8
L:1/8
K:G
|: GBd cAF | Gge dBG | cec BdB | ABG FED |
GBd cAF | Gge dBG | cec Bag |1 fef g2D :|2 fef g3 |:
gdB gdB | gfa gdB | gfg eag | fd^c def |
gag fgf | efe def | gdB AGA |1 BGF G3 :|2 BGF G2D |]
